TileServer und Tiles/svg/9/36_8.svg

<?xml version='1.0' encoding='UTF-8' standalone='no'?>
<svg xmlns="http://www.w3.org/2000/svg" width="497pt" viewBox="0 0 497 279" xmlns:xlink="http://www.w3.org/1999/xlink" height="279pt">
 <defs style="stroke:none;" overflow="visible">
  <path id="glyph0-7" d="M 2.875 -5.453125 C 3.53125 -5.453125 4.015625 -5.304688 4.328125 -5.015625 C 4.640625 -4.734375 4.796875 -4.28125 4.796875 -3.65625 L 4.796875 0 L 4.15625 0 L 3.984375 -0.765625 L 3.953125 -0.765625 C 3.710938 -0.460938 3.460938 -0.242188 3.203125 -0.109375 C 2.953125 0.0234375 2.601562 0.09375 2.15625 0.09375 C 1.664062 0.09375 1.257812 -0.03125 0.9375 -0.28125 C 0.613281 -0.539062 0.453125 -0.941406 0.453125 -1.484375 C 0.453125 -2.023438 0.660156 -2.4375 1.078125 -2.71875 C 1.503906 -3.007812 2.15625 -3.171875 3.03125 -3.203125 L 3.9375 -3.234375 L 3.9375 -3.546875 C 3.9375 -3.992188 3.835938 -4.300781 3.640625 -4.46875 C 3.453125 -4.644531 3.179688 -4.734375 2.828125 -4.734375 C 2.546875 -4.734375 2.28125 -4.691406 2.03125 -4.609375 C 1.78125 -4.523438 1.539062 -4.429688 1.3125 -4.328125 L 1.046875 -4.984375 C 1.285156 -5.117188 1.5625 -5.226562 1.875 -5.3125 C 2.195312 -5.40625 2.53125 -5.453125 2.875 -5.453125 Z M 3.9375 -2.625 L 3.140625 -2.59375 C 2.472656 -2.5625 2.007812 -2.453125 1.75 -2.265625 C 1.5 -2.078125 1.375 -1.816406 1.375 -1.484375 C 1.375 -1.179688 1.460938 -0.957031 1.640625 -0.8125 C 1.828125 -0.675781 2.0625 -0.609375 2.34375 -0.609375 C 2.800781 -0.609375 3.179688 -0.734375 3.484375 -0.984375 C 3.785156 -1.234375 3.9375 -1.617188 3.9375 -2.140625 Z M 3.9375 -2.625 "/>
  <path id="glyph0-6" d="M 2.125 -2.734375 L 0.265625 -5.359375 L 1.265625 -5.359375 L 2.65625 -3.34375 L 4.015625 -5.359375 L 5.015625 -5.359375 L 3.15625 -2.734375 L 5.109375 0 L 4.109375 0 L 2.65625 -2.140625 L 1.171875 0 L 0.1875 0 Z M 2.125 -2.734375 "/>
  <path id="glyph0-5" d="M 3.40625 -5.453125 C 4.0625 -5.453125 4.585938 -5.222656 4.984375 -4.765625 C 5.390625 -4.304688 5.59375 -3.613281 5.59375 -2.6875 C 5.59375 -1.769531 5.390625 -1.078125 4.984375 -0.609375 C 4.585938 -0.140625 4.054688 0.09375 3.390625 0.09375 C 2.972656 0.09375 2.628906 0.015625 2.359375 -0.140625 C 2.085938 -0.296875 1.878906 -0.476562 1.734375 -0.6875 L 1.671875 -0.6875 C 1.679688 -0.570312 1.691406 -0.425781 1.703125 -0.25 C 1.722656 -0.0703125 1.734375 0.078125 1.734375 0.203125 L 1.734375 2.40625 L 0.84375 2.40625 L 0.84375 -5.359375 L 1.5625 -5.359375 L 1.6875 -4.625 L 1.734375 -4.625 C 1.890625 -4.863281 2.097656 -5.0625 2.359375 -5.21875 C 2.617188 -5.375 2.96875 -5.453125 3.40625 -5.453125 Z M 3.234375 -4.71875 C 2.691406 -4.71875 2.304688 -4.5625 2.078125 -4.25 C 1.859375 -3.945312 1.742188 -3.484375 1.734375 -2.859375 L 1.734375 -2.6875 C 1.734375 -2.03125 1.835938 -1.519531 2.046875 -1.15625 C 2.265625 -0.800781 2.671875 -0.625 3.265625 -0.625 C 3.585938 -0.625 3.851562 -0.710938 4.0625 -0.890625 C 4.269531 -1.078125 4.425781 -1.320312 4.53125 -1.625 C 4.632812 -1.9375 4.6875 -2.296875 4.6875 -2.703125 C 4.6875 -3.316406 4.566406 -3.804688 4.328125 -4.171875 C 4.097656 -4.535156 3.734375 -4.71875 3.234375 -4.71875 Z M 3.234375 -4.71875 "/>
  <path id="glyph0-4" d="M 5.515625 -2.6875 C 5.515625 -1.800781 5.285156 -1.113281 4.828125 -0.625 C 4.378906 -0.144531 3.773438 0.09375 3.015625 0.09375 C 2.535156 0.09375 2.109375 -0.0078125 1.734375 -0.21875 C 1.367188 -0.4375 1.078125 -0.753906 0.859375 -1.171875 C 0.648438 -1.585938 0.546875 -2.09375 0.546875 -2.6875 C 0.546875 -3.570312 0.769531 -4.253906 1.21875 -4.734375 C 1.664062 -5.210938 2.273438 -5.453125 3.046875 -5.453125 C 3.523438 -5.453125 3.945312 -5.34375 4.3125 -5.125 C 4.6875 -4.914062 4.976562 -4.601562 5.1875 -4.1875 C 5.40625 -3.78125 5.515625 -3.28125 5.515625 -2.6875 Z M 3.015625 -4.71875 C 2.523438 -4.71875 2.15625 -4.582031 1.90625 -4.3125 C 1.664062 -4.039062 1.519531 -3.644531 1.46875 -3.125 L 4.59375 -3.125 C 4.539062 -3.644531 4.382812 -4.039062 4.125 -4.3125 C 3.875 -4.582031 3.503906 -4.71875 3.015625 -4.71875 Z M 3.03125 -0.625 C 3.539062 -0.625 3.921875 -0.773438 4.171875 -1.078125 C 4.421875 -1.378906 4.5625 -1.816406 4.59375 -2.390625 L 1.453125 -2.390625 C 1.492188 -1.816406 1.640625 -1.378906 1.890625 -1.078125 C 2.140625 -0.773438 2.519531 -0.625 3.03125 -0.625 Z M 3.03125 -0.625 "/>
  <path id="glyph0-3" d="M 4.828125 -5.359375 L 4.828125 -0.734375 L 5.609375 -0.734375 L 5.609375 1.859375 L 4.765625 1.859375 L 4.765625 0 L 1.03125 0 L 1.03125 1.859375 L 0.1875 1.859375 L 0.1875 -0.734375 L 0.625 -0.734375 C 1.082031 -1.367188 1.425781 -2.09375 1.65625 -2.90625 C 1.882812 -3.71875 2.003906 -4.535156 2.015625 -5.359375 Z M 3.984375 -4.671875 L 2.796875 -4.671875 C 2.765625 -4.210938 2.691406 -3.742188 2.578125 -3.265625 C 2.460938 -2.785156 2.316406 -2.320312 2.140625 -1.875 C 1.960938 -1.4375 1.757812 -1.054688 1.53125 -0.734375 L 3.984375 -0.734375 Z M 3.984375 -4.671875 "/>
  <path id="glyph0-2" d="M 1.734375 -5.359375 L 1.734375 -3.125 L 4.640625 -3.125 L 4.640625 -5.359375 L 5.515625 -5.359375 L 5.515625 0 L 4.640625 0 L 4.640625 -2.390625 L 1.734375 -2.390625 L 1.734375 0 L 0.84375 0 L 0.84375 -5.359375 Z M 1.734375 -5.359375 "/>
  <path id="glyph0-1" d="M 7.203125 -3.578125 C 7.203125 -2.835938 7.078125 -2.191406 6.828125 -1.640625 C 6.578125 -1.085938 6.207031 -0.660156 5.71875 -0.359375 C 5.226562 -0.0546875 4.625 0.09375 3.90625 0.09375 C 3.164062 0.09375 2.550781 -0.0546875 2.0625 -0.359375 C 1.570312 -0.660156 1.207031 -1.085938 0.96875 -1.640625 C 0.726562 -2.203125 0.609375 -2.851562 0.609375 -3.59375 C 0.609375 -4.320312 0.726562 -4.957031 0.96875 -5.5 C 1.207031 -6.050781 1.570312 -6.476562 2.0625 -6.78125 C 2.550781 -7.09375 3.171875 -7.25 3.921875 -7.25 C 4.628906 -7.25 5.226562 -7.097656 5.71875 -6.796875 C 6.207031 -6.492188 6.578125 -6.066406 6.828125 -5.515625 C 7.078125 -4.960938 7.203125 -4.316406 7.203125 -3.578125 Z M 3.921875 -6.453125 C 3.171875 -6.453125 2.601562 -6.238281 2.21875 -5.8125 C 1.84375 -5.382812 1.625 -4.789062 1.5625 -4.03125 L 6.234375 -4.03125 C 6.171875 -4.789062 5.953125 -5.382812 5.578125 -5.8125 C 5.210938 -6.238281 4.660156 -6.453125 3.921875 -6.453125 Z M 3.90625 -0.6875 C 4.664062 -0.6875 5.234375 -0.910156 5.609375 -1.359375 C 5.992188 -1.816406 6.203125 -2.445312 6.234375 -3.25 L 1.5625 -3.25 C 1.601562 -2.445312 1.8125 -1.816406 2.1875 -1.359375 C 2.570312 -0.910156 3.144531 -0.6875 3.90625 -0.6875 Z M 3.90625 -0.6875 "/>
  <path id="glyph0-0" d="M 0.9375 0 L 0.9375 -7.140625 L 5.046875 -7.140625 L 5.046875 0 Z M 1.453125 -0.515625 L 4.546875 -0.515625 L 4.546875 -6.625 L 1.453125 -6.625 Z M 1.453125 -0.515625 "/>
 </defs>
 <image width="497" xlink:href="svg/9/36_8.jpg" height="279"/>
 <g>
  <path d="M 338.148438 195.9375 C 338.148438 196.679688 338.023438 197.324219 337.773438 197.875 C 337.523438 198.429688 337.152344 198.855469 336.664062 199.15625 C 336.171875 199.460938 335.570312 199.609375 334.851562 199.609375 C 334.109375 199.609375 333.496094 199.460938 333.007812 199.15625 C 332.515625 198.855469 332.152344 198.429688 331.914062 197.875 C 331.671875 197.3125 331.554688 196.664062 331.554688 195.921875 C 331.554688 195.195312 331.671875 194.558594 331.914062 194.015625 C 332.152344 193.464844 332.515625 193.039062 333.007812 192.734375 C 333.496094 192.421875 334.117188 192.265625 334.867188 192.265625 C 335.574219 192.265625 336.171875 192.417969 336.664062 192.71875 C 337.152344 193.023438 337.523438 193.449219 337.773438 194 C 338.023438 194.554688 338.148438 195.199219 338.148438 195.9375 Z M 334.867188 193.0625 C 334.117188 193.0625 333.546875 193.277344 333.164062 193.703125 C 332.789062 194.132812 332.570312 194.726562 332.507812 195.484375 L 337.179688 195.484375 C 337.117188 194.726562 336.898438 194.132812 336.523438 193.703125 C 336.15625 193.277344 335.605469 193.0625 334.867188 193.0625 Z M 334.851562 198.828125 C 335.609375 198.828125 336.179688 198.605469 336.554688 198.15625 C 336.9375 197.699219 337.148438 197.070312 337.179688 196.265625 L 332.507812 196.265625 C 332.546875 197.070312 332.757812 197.699219 333.132812 198.15625 C 333.515625 198.605469 334.089844 198.828125 334.851562 198.828125 Z M 334.851562 198.828125 " transform=" rotate(  340 359.109 196.516) " style="fill:none;stroke-width:3;stroke-linecap:butt;stroke-linejoin:round;stroke:rgb(100%,100%,100%);stroke-opacity:0.6;stroke-miterlimit:10;"/>
  <path d="M 340.5 194.15625 L 340.5 196.390625 L 343.40625 196.390625 L 343.40625 194.15625 L 344.28125 194.15625 L 344.28125 199.515625 L 343.40625 199.515625 L 343.40625 197.125 L 340.5 197.125 L 340.5 199.515625 L 339.609375 199.515625 L 339.609375 194.15625 Z M 340.5 194.15625 " transform=" rotate(  340 359.109 196.516) " style="fill:none;stroke-width:3;stroke-linecap:butt;stroke-linejoin:round;stroke:rgb(100%,100%,100%);stroke-opacity:0.6;stroke-miterlimit:10;"/>
  <path d="M 349.960938 194.15625 L 349.960938 198.78125 L 350.742188 198.78125 L 350.742188 201.375 L 349.898438 201.375 L 349.898438 199.515625 L 346.164062 199.515625 L 346.164062 201.375 L 345.320312 201.375 L 345.320312 198.78125 L 345.757812 198.78125 C 346.214844 198.148438 346.558594 197.421875 346.789062 196.609375 C 347.015625 195.796875 347.136719 194.980469 347.148438 194.15625 Z M 349.117188 194.84375 L 347.929688 194.84375 C 347.898438 195.304688 347.824219 195.773438 347.710938 196.25 C 347.59375 196.730469 347.449219 197.195312 347.273438 197.640625 C 347.09375 198.078125 346.890625 198.460938 346.664062 198.78125 L 349.117188 198.78125 Z M 349.117188 194.84375 " transform=" rotate(  340 359.109 196.516) " style="fill:none;stroke-width:3;stroke-linecap:butt;stroke-linejoin:round;stroke:rgb(100%,100%,100%);stroke-opacity:0.6;stroke-miterlimit:10;"/>
  <path d="M 356.460938 196.828125 C 356.460938 197.714844 356.230469 198.402344 355.773438 198.890625 C 355.324219 199.371094 354.71875 199.609375 353.960938 199.609375 C 353.480469 199.609375 353.054688 199.507812 352.679688 199.296875 C 352.3125 199.078125 352.023438 198.761719 351.804688 198.34375 C 351.59375 197.929688 351.492188 197.421875 351.492188 196.828125 C 351.492188 195.945312 351.714844 195.261719 352.164062 194.78125 C 352.609375 194.304688 353.21875 194.0625 353.992188 194.0625 C 354.46875 194.0625 354.890625 194.171875 355.257812 194.390625 C 355.632812 194.601562 355.921875 194.914062 356.132812 195.328125 C 356.351562 195.734375 356.460938 196.234375 356.460938 196.828125 Z M 353.960938 194.796875 C 353.46875 194.796875 353.101562 194.933594 352.851562 195.203125 C 352.609375 195.476562 352.464844 195.871094 352.414062 196.390625 L 355.539062 196.390625 C 355.484375 195.871094 355.328125 195.476562 355.070312 195.203125 C 354.820312 194.933594 354.449219 194.796875 353.960938 194.796875 Z M 353.976562 198.890625 C 354.484375 198.890625 354.867188 198.742188 355.117188 198.4375 C 355.367188 198.136719 355.507812 197.699219 355.539062 197.125 L 352.398438 197.125 C 352.4375 197.699219 352.585938 198.136719 352.835938 198.4375 C 353.085938 198.742188 353.464844 198.890625 353.976562 198.890625 Z M 353.976562 198.890625 " transform=" rotate(  340 359.109 196.516) " style="fill:none;stroke-width:3;stroke-linecap:butt;stroke-linejoin:round;stroke:rgb(100%,100%,100%);stroke-opacity:0.6;stroke-miterlimit:10;"/>
  <path d="M 360.402344 194.0625 C 361.058594 194.0625 361.582031 194.292969 361.980469 194.75 C 362.386719 195.210938 362.589844 195.902344 362.589844 196.828125 C 362.589844 197.746094 362.386719 198.4375 361.980469 198.90625 C 361.582031 199.375 361.050781 199.609375 360.386719 199.609375 C 359.96875 199.609375 359.625 199.53125 359.355469 199.375 C 359.082031 199.21875 358.875 199.039062 358.730469 198.828125 L 358.667969 198.828125 C 358.675781 198.945312 358.6875 199.089844 358.699219 199.265625 C 358.71875 199.445312 358.730469 199.59375 358.730469 199.71875 L 358.730469 201.921875 L 357.839844 201.921875 L 357.839844 194.15625 L 358.558594 194.15625 L 358.683594 194.890625 L 358.730469 194.890625 C 358.886719 194.652344 359.09375 194.453125 359.355469 194.296875 C 359.613281 194.140625 359.964844 194.0625 360.402344 194.0625 Z M 360.230469 194.796875 C 359.6875 194.796875 359.300781 194.953125 359.074219 195.265625 C 358.855469 195.570312 358.738281 196.03125 358.730469 196.65625 L 358.730469 196.828125 C 358.730469 197.484375 358.832031 197.996094 359.042969 198.359375 C 359.261719 198.714844 359.667969 198.890625 360.261719 198.890625 C 360.582031 198.890625 360.847656 198.804688 361.058594 198.625 C 361.265625 198.4375 361.421875 198.195312 361.527344 197.890625 C 361.628906 197.578125 361.683594 197.21875 361.683594 196.8125 C 361.683594 196.199219 361.5625 195.710938 361.324219 195.34375 C 361.09375 194.980469 360.730469 194.796875 360.230469 194.796875 Z M 360.230469 194.796875 " transform=" rotate(  340 359.109 196.516) " style="fill:none;stroke-width:3;stroke-linecap:butt;stroke-linejoin:round;stroke:rgb(100%,100%,100%);stroke-opacity:0.6;stroke-miterlimit:10;"/>
  <path d="M 365.070312 196.78125 L 363.210938 194.15625 L 364.210938 194.15625 L 365.601562 196.171875 L 366.960938 194.15625 L 367.960938 194.15625 L 366.101562 196.78125 L 368.054688 199.515625 L 367.054688 199.515625 L 365.601562 197.375 L 364.117188 199.515625 L 363.132812 199.515625 Z M 365.070312 196.78125 " transform=" rotate(  340 359.109 196.516) " style="fill:none;stroke-width:3;stroke-linecap:butt;stroke-linejoin:round;stroke:rgb(100%,100%,100%);stroke-opacity:0.6;stroke-miterlimit:10;"/>
  <path d="M 371.109375 194.0625 C 371.765625 194.0625 372.25 194.210938 372.5625 194.5 C 372.875 194.78125 373.03125 195.234375 373.03125 195.859375 L 373.03125 199.515625 L 372.390625 199.515625 L 372.21875 198.75 L 372.1875 198.75 C 371.945312 199.054688 371.695312 199.273438 371.4375 199.40625 C 371.1875 199.539062 370.835938 199.609375 370.390625 199.609375 C 369.898438 199.609375 369.492188 199.484375 369.171875 199.234375 C 368.847656 198.976562 368.6875 198.574219 368.6875 198.03125 C 368.6875 197.492188 368.894531 197.078125 369.3125 196.796875 C 369.738281 196.507812 370.390625 196.34375 371.265625 196.3125 L 372.171875 196.28125 L 372.171875 195.96875 C 372.171875 195.523438 372.070312 195.214844 371.875 195.046875 C 371.6875 194.871094 371.414062 194.78125 371.0625 194.78125 C 370.78125 194.78125 370.515625 194.824219 370.265625 194.90625 C 370.015625 194.992188 369.773438 195.085938 369.546875 195.1875 L 369.28125 194.53125 C 369.519531 194.398438 369.796875 194.289062 370.109375 194.203125 C 370.429688 194.109375 370.765625 194.0625 371.109375 194.0625 Z M 372.171875 196.890625 L 371.375 196.921875 C 370.707031 196.953125 370.242188 197.0625 369.984375 197.25 C 369.734375 197.4375 369.609375 197.699219 369.609375 198.03125 C 369.609375 198.335938 369.695312 198.558594 369.875 198.703125 C 370.0625 198.839844 370.296875 198.90625 370.578125 198.90625 C 371.035156 198.90625 371.414062 198.78125 371.71875 198.53125 C 372.019531 198.28125 372.171875 197.898438 372.171875 197.375 Z M 372.171875 196.890625 " transform=" rotate(  340 359.109 196.516) " style="fill:none;stroke-width:3;stroke-linecap:butt;stroke-linejoin:round;stroke:rgb(100%,100%,100%);stroke-opacity:0.6;stroke-miterlimit:10;"/>
  <path d="M 376.71875 194.0625 C 377.375 194.0625 377.859375 194.210938 378.171875 194.5 C 378.484375 194.78125 378.640625 195.234375 378.640625 195.859375 L 378.640625 199.515625 L 378 199.515625 L 377.828125 198.75 L 377.796875 198.75 C 377.554688 199.054688 377.304688 199.273438 377.046875 199.40625 C 376.796875 199.539062 376.445312 199.609375 376 199.609375 C 375.507812 199.609375 375.101562 199.484375 374.78125 199.234375 C 374.457031 198.976562 374.296875 198.574219 374.296875 198.03125 C 374.296875 197.492188 374.503906 197.078125 374.921875 196.796875 C 375.347656 196.507812 376 196.34375 376.875 196.3125 L 377.78125 196.28125 L 377.78125 195.96875 C 377.78125 195.523438 377.679688 195.214844 377.484375 195.046875 C 377.296875 194.871094 377.023438 194.78125 376.671875 194.78125 C 376.390625 194.78125 376.125 194.824219 375.875 194.90625 C 375.625 194.992188 375.382812 195.085938 375.15625 195.1875 L 374.890625 194.53125 C 375.128906 194.398438 375.40625 194.289062 375.71875 194.203125 C 376.039062 194.109375 376.375 194.0625 376.71875 194.0625 Z M 377.78125 196.890625 L 376.984375 196.921875 C 376.316406 196.953125 375.851562 197.0625 375.59375 197.25 C 375.34375 197.4375 375.21875 197.699219 375.21875 198.03125 C 375.21875 198.335938 375.304688 198.558594 375.484375 198.703125 C 375.671875 198.839844 375.90625 198.90625 376.1875 198.90625 C 376.644531 198.90625 377.023438 198.78125 377.328125 198.53125 C 377.628906 198.28125 377.78125 197.898438 377.78125 197.375 Z M 377.78125 196.890625 " transform=" rotate(  340 359.109 196.516) " style="fill:none;stroke-width:3;stroke-linecap:butt;stroke-linejoin:round;stroke:rgb(100%,100%,100%);stroke-opacity:0.6;stroke-miterlimit:10;"/>
  <path d="M 381.1875 194.15625 L 381.1875 196.390625 L 384.09375 196.390625 L 384.09375 194.15625 L 384.96875 194.15625 L 384.96875 199.515625 L 384.09375 199.515625 L 384.09375 197.125 L 381.1875 197.125 L 381.1875 199.515625 L 380.296875 199.515625 L 380.296875 194.15625 Z M 381.1875 194.15625 " transform=" rotate(  340 359.109 196.516) " style="fill:none;stroke-width:3;stroke-linecap:butt;stroke-linejoin:round;stroke:rgb(100%,100%,100%);stroke-opacity:0.6;stroke-miterlimit:10;"/>
  <g transform=" rotate(  340 359.109 196.516) " style="fill:rgb(13.333333%,13.333333%,13.333333%);fill-opacity:1;">
   <use xlink:href="#glyph0-1" y="199.516354" x="330.944434"/>
   <use xlink:href="#glyph0-2" y="199.516354" x="338.764434"/>
   <use xlink:href="#glyph0-3" y="199.516354" x="345.134434"/>
   <use xlink:href="#glyph0-4" y="199.516354" x="350.944434"/>
   <use xlink:href="#glyph0-5" y="199.516354" x="356.994434"/>
   <use xlink:href="#glyph0-6" y="199.516354" x="362.944434"/>
   <use xlink:href="#glyph0-7" y="199.516354" x="368.234434"/>
   <use xlink:href="#glyph0-7" y="199.516354" x="373.844434"/>
   <use xlink:href="#glyph0-2" y="199.516354" x="379.454434"/>
  </g>
 </g>
</svg>

<svg xmlns="http://www.w3.org/2000/svg" xmlns:xlink="http://www.w3.org/1999/xlink" viewBox="0 0 497 279"> <defs overflow="visible" style="stroke:none">  <path id="g" d="M2.9-5.5c.6 0 1.1.2 1.4.5.3.3.5.7.5 1.3V0h-.6L4-.8c-.3.3-.5.6-.8.8h-1c-.5 0-1 0-1.3-.3C.6-.5.5-.9.5-1.5c0-.5.2-1 .5-1.2.5-.3 1-.5 2-.5h.8v-.3c.2-.5.2-.8-.2-1l-.8-.2H2l-.7.5L1-5l1-.3.9-.2Zm1 2.9h-.8c-.6 0-1 .1-1.4.3-.1.3-.3.5-.3.8 0 .3 0 .5.2.7l.7.2c.5 0 .9-.1 1.2-.4.3-.2.4-.6.4-1Zm.1 0"/>  <path id="f" d="M2.1-2.7.3-5.4h1l1.4 2L4-5.3h1L3.2-2.7l2 2.7H4.1L2.6-2.1 1.2 0h-1Zm0 0"/>  <path id="e" d="M3.4-5.5c.7 0 1.2.3 1.6.7.4.5.6 1.2.6 2.1 0 1-.2 1.7-.6 2-.4.7-1 .9-1.6.9-.4-.2-.8-.2-1-.3l-.7-.6v3.1H.8v-7.8h.8v.8h.2c.2-.4.3-.5.6-.6.2-.2.6-.3 1-.3Zm-.2.8c-.5 0-.9.1-1.1.5-.2.2-.4.7-.4 1.2v.3c0 .7.1 1.2.3 1.5.3.4.7.6 1.3.6.3 0 .6-.1.7-.4l.5-.6.2-1.1c0-.6-.1-1.1-.4-1.5-.2-.3-.6-.5-1-.5Zm0 0"/>  <path id="d" d="M5.5-2.7c0 .9-.2 1.7-.7 2-.4.7-1 .9-1.8.9-.5-.2-.9-.2-1.3-.4-.3-.2-.6-.6-.7-1C.6-1.6.5-2 .5-2.7c0-.9.3-1.6.7-2 .5-.5 1-.8 1.8-.8.5 0 1 .2 1.3.5.4 0 .7.4.9.9.2.2.3.7.3 1.3ZM3-4.7c-.5 0-.8.1-1 .4-.4.3-.6.7-.6 1.2h3.1c.1-.5 0-1-.3-1.2-.2-.3-.7-.4-1.1-.4Zm0 4c.5.1 1 .1 1.2-.3.2-.4.4-.8.4-1.4H1.5c0 .6.1 1 .4 1.4.1.2.6.4 1.1.4Zm0 .1"/>  <path id="c" d="M4.8-5.4v4.7h.8v2.6h-.8V0H1v1.9H.2V-.7h.4a6.9 6.9 0 0 0 1-2.3A9.6 9.6 0 0 0 2-5.4Zm-.8.7H2.8l-.2 1.4L2-1.9c0 .5-.2.9-.5 1.2H4Zm0 0"/>  <path id="b" d="M1.7-5.4V-3h3v-2.4h.7V0h-.8v-2.4H1.7V0H.8v-5.4Zm0 0"/>  <path id="a" d="M7.2-3.6c0 .8-.1 1.4-.4 2-.2.5-.6 1-1 1.2-.7.4-1.3.5-2 .5S2.6-.1 2.1-.4A2.7 2.7 0 0 1 1-1.6a4.9 4.9 0 0 1-.4-2c0-.7.1-1.4.4-1.9.2-.6.6-1 1-1.3.7-.2 1.3-.5 2-.5.5 0 1.1.3 1.6.5s1 .7 1.2 1.3c.3.5.4 1.2.4 2ZM3.9-6.5c-.7 0-1.3.3-1.7.7-.4.4-.6 1-.6 1.8h4.6c0-.8-.2-1.4-.6-1.8-.4-.4-1-.7-1.7-.7ZM4-.7c.7 0 1.2-.2 1.6-.7.4-.4.6-1 .6-1.9H1.6c0 .9.2 1.5.6 2 .4.3 1 .5 1.7.5Zm0 0"/>  <path d="M1 0v-7.1h4V0Zm.4-.5h3.1v-6.1h-3Zm.1 0"/> </defs> <image xlink:href="svg/9/36_8.jpg" width="497" height="279"/> <path d="M338.1 196c0 .6 0 1.2-.3 1.8-.3.6-.6 1.1-1.1 1.4-.5.3-1.1.4-1.8.4-.9 0-1.4-.1-1.9-.4a2.7 2.7 0 0 1-1-1.3 4.9 4.9 0 0 1-.5-2c.1-.7.1-1.3.4-1.9.3-.5.6-1 1.1-1.3.5-.3 1.1-.4 2-.4.6 0 1.2.1 1.7.4.5.3.8.7 1 1.3.3.6.5 1.2.5 2Zm-3.1-3c-1 0-1.5.4-1.8.8-.4.3-.6.9-.7 1.7h4.7c0-.8-.3-1.5-.7-1.8-.3-.4-.9-.6-1.5-.6Zm-.1 5.9c.7-.1 1.3-.3 1.7-.7.3-.5.4-1.2.6-2h-4.7c0 1 .3 1.6.6 2.1.4.3 1 .5 1.9.5ZM340.5 194.2v2.2h3v-2.2h.7v5.3h-.8v-2.4h-2.9v2.4h-.9v-5.3Zm9.5 0v4.6h.7v2.6h-.7v-1.9h-3.8v1.9h-.9v-2.6h.5a6.9 6.9 0 0 0 1-2.2 9.6 9.6 0 0 0 .2-2.4Zm-1 .6h-1c0 .5 0 1-.3 1.4l-.4 1.5-.6 1.1h2.3Zm7.5 2c0 1-.3 1.6-.7 2-.5.7-1 .9-1.8.9-.5-.1-1-.1-1.3-.4-.4-.2-.7-.5-.9-1-.2-.3-.3-.9-.3-1.5 0-.8.2-1.5.7-2 .4-.5 1-.8 1.8-.8.5 0 .9 0 1.3.4.3.2.6.5.7 1 .4.2.5.7.5 1.3Zm-2.5-2c-.5 0-1 .1-1.1.4-.3.3-.4.7-.5 1.2h3.1c0-.5-.2-1-.4-1.2-.3-.3-.7-.4-1.1-.4Zm0 4c.5.1.9.1 1-.3.4-.4.5-.8.5-1.4h-3.1c0 .6.2 1 .4 1.3.3.3.7.6 1.2.6ZM360.4 194c.7 0 1.2.4 1.6.9.4.3.6.9.6 1.9 0 1-.2 1.6-.6 2.2-.4.4-1 .6-1.6.6-.4 0-.8 0-1-.2l-.7-.6v3.2h-.9v-7.8h.8v.7h.2l.6-.6c.2-.2.6-.2 1-.2Zm-.2.9c-.5-.1-.9.1-1.1.4-.2.3-.4.7-.4 1.4v.1c0 .7.1 1.2.3 1.6.3.3.7.5 1.3.5.3 0 .5-.1.7-.3l.5-.6.2-1.1c0-.8-.1-1.3-.4-1.7-.2-.2-.6-.4-1-.4Zm4.8 1.9-1.7-2.6h.9l1.4 2 1.4-2h1l-2 2.6 2.1 2.7H367l-1.4-2.1-1.5 2.1h-1Zm6.1-2.8c.7 0 1.1.3 1.5.6.3.2.4.6.4 1.3v3.6h-.6l-.2-.8c-.3.5-.5.6-.8.7l-1 .2c-.5 0-1-.1-1.2-.4-.4-.2-.5-.6-.5-1.2 0-.5.2-1 .6-1.2.4-.3 1-.5 2-.5h.9v-.3c0-.5-.2-.8-.3-1l-.9-.2-.7.1c-.3.1-.5.2-.8.3l-.2-.7.7-.3 1.1-.1Zm1 3h-.6c-.8 0-1.3.1-1.5.2-.3.2-.4.6-.4.8 0 .3.1.6.4.7l.6.2c.4.1.8-.1 1.1-.4.3-.2.5-.5.5-1.1Zm4.6-3c.7 0 1.3.3 1.5.6.3.2.4.6.4 1.3v3.6h-.6l-.2-.8c-.2.5-.5.6-.8.7l-1 .2c-.5 0-.9-.1-1.2-.4-.3-.2-.5-.6-.5-1.2 0-.5.2-1 .6-1.2.4-.3 1.1-.5 2.1-.5h.8v-.3c0-.5-.1-.8-.3-1l-.8-.2-.8.1c-.3.1-.5.2-.7.3l-.3-.7.8-.3 1-.1Zm1 3h-.7c-.7 0-1.1.1-1.4.2-.3.2-.4.6-.4.8 0 .3.1.6.3.7l.7.2c.4.1.8-.1 1.1-.4.3-.2.5-.5.5-1.1ZM381.2 194.2v2.2h2.8v-2.2h1v5.3h-1v-2.4h-2.7v2.4h-1v-5.3Zm0 0" style="fill:none;stroke-width:3;stroke-linecap:butt;stroke-linejoin:round;stroke:#fff;stroke-opacity:.6;stroke-miterlimit:10" transform=" rotate(  340 359.109 196.516) "/> <g style="fill:#222;fill-opacity:1" transform=" rotate(  340 359.109 196.516) ">  <use xlink:href="#a" x="330.9" y="199.5"/>  <use xlink:href="#b" x="338.8" y="199.5"/>  <use xlink:href="#c" x="345.1" y="199.5"/>  <use xlink:href="#d" x="350.9" y="199.5"/>  <use xlink:href="#e" x="357" y="199.5"/>  <use xlink:href="#f" x="362.9" y="199.5"/>  <use xlink:href="#g" x="368.2" y="199.5"/>  <use xlink:href="#g" x="373.8" y="199.5"/>  <use xlink:href="#b" x="379.5" y="199.5"/> </g></svg>
